packages/kaspersky-hexa-ui-icons/src/iconsSVGs/24/ToolSolid.svg

<svg width="24" height="24" viewBox="0 0 24 24" fill="none" xmlns="http://www.w3.org/2000/svg">
<path d="M12.9464 4.46113C11.1473 2.66207 8.49101 2.24502 6.29462 3.20708C5.69476 3.46982 5.63272 4.21851 6.04212 4.62791L9.50896 8.09475L8.09475 9.50896L4.62791 6.04212C4.21851 5.63272 3.46982 5.69476 3.20708 6.29462C2.24502 8.49101 2.66207 11.1473 4.46113 12.9464C6.03204 14.5173 8.2568 15.0344 10.2574 14.5001L16.614 20.8566C17.1997 21.4424 18.1495 21.4424 18.7353 20.8566L20.8566 18.7353C21.4424 18.1495 21.4424 17.1997 20.8566 16.614L14.5001 10.2574C15.0344 8.25679 14.5173 6.03204 12.9464 4.46113Z" fill="black"/>
</svg>

<svg xmlns="http://www.w3.org/2000/svg" width="24" height="24" fill="none" viewBox="0 0 24 24"><path d="M0 24h24V0H0z"/><path fill="#000" d="M12.9464 4.4613C11.1473 2.6622 8.491 2.2452 6.2946 3.2072c-.5998.2627-.6619 1.0114-.2525 1.4208L9.509 8.095 8.0947 9.509 4.628 6.0423c-.4094-.4095-1.158-.3474-1.4208.2524-.962 2.1964-.545 4.8528 1.254 6.6518 1.571 1.5709 3.7957 2.088 5.7963 1.5537l6.3566 6.3565c.5857.5858 1.5355.5858 2.1213 0l2.1213-2.1213c.5858-.5858.5858-1.5355 0-2.1213l-6.3565-6.3565c.5343-2.0007.0172-4.2254-1.5537-5.7963"/></svg>
